dist/images/pseudoElements/spiral.svg

<svg width="46" height="41" viewBox="0 0 46 41" fill="none" xmlns="http://www.w3.org/2000/svg">
<path d="M42.5341 4.5204C43.6521 5.02495 44.5217 4.39426 44.8944 3.38517C45.267 2.37607 45.0186 1.36698 43.9006 0.862431C43.031 0.484021 42.2856 0.231748 41.416 0.105611C38.6831 -0.2728 36.1986 0.357884 33.9625 2.1238C32.596 3.13289 31.478 3.88971 29.6146 3.25903C27.5028 2.62835 25.3909 3.5113 23.5276 4.64653C21.2915 6.03404 19.8008 8.05223 18.3101 10.0704C17.3163 11.4579 13.4653 14.9898 12.0988 15.9988C10.8566 16.8818 9.6143 17.7648 8.6205 18.9C4.14837 23.9455 1.53964 30 0.173155 36.5591C-0.075296 37.5682 -0.075296 38.5773 0.297381 39.5864C0.670058 40.4694 1.29119 41.1001 2.28499 40.9739C3.15457 40.9739 3.65147 40.4694 3.7757 39.5864C3.89992 38.9557 3.7757 38.3251 3.89992 37.6944C5.01795 31.3875 7.50247 25.7114 11.8504 21.1705C12.3473 20.6659 12.8442 19.6568 14.0864 20.2875C13.4653 23.0625 13.0926 25.8375 13.5895 28.6125C14.0864 31.2614 15.3287 32.775 17.5647 33.1534C19.925 33.5319 21.6642 32.3966 23.0307 30.6307C23.776 29.7478 24.1487 28.6125 24.2729 27.4773C24.894 23.3148 24.1487 19.6568 21.1673 16.5034C20.5462 15.8727 19.5523 15.4943 20.1735 14.3591C22.0369 11.0795 23.9002 7.67382 28.9935 7.04313C27.627 10.4488 26.2605 13.0977 25.8879 16.2511C25.6394 19.0261 25.7636 21.5489 27.0059 24.0716C27.8755 25.7114 29.1177 26.9727 31.1053 26.9727C33.0929 26.9727 34.3352 25.8375 35.2048 24.0716C36.3228 21.9273 36.8197 19.5307 36.8197 17.0079C36.6955 14.1068 36.3228 11.0795 35.0805 8.43064C34.3352 6.917 34.7079 6.03404 35.9501 5.27722C38.1862 3.88971 40.298 3.5113 42.5341 4.5204ZM20.6704 26.9727C20.4219 28.108 19.8008 29.3693 18.4343 29.2432C17.1921 29.1171 17.1921 27.7296 17.1921 26.8466C17.0678 24.3239 17.3163 21.8011 18.5585 19.0261C20.7946 21.675 21.2915 24.1977 20.6704 26.9727ZM31.3538 23.4409C28.8693 18.7739 29.7388 14.8636 31.8507 11.0795C33.3414 15.1159 34.0867 19.0261 31.3538 23.4409Z" fill="#5B1A0D"/>
</svg>

<svg width="46" height="41" fill="none" xmlns="http://www.w3.org/2000/svg"><path d="M42.534 4.52c1.118.505 1.988-.126 2.36-1.135.373-1.009.125-2.018-.993-2.523-.87-.378-1.615-.63-2.485-.756-2.733-.379-5.217.252-7.453 2.018-1.367 1.009-2.485 1.766-4.348 1.135-2.112-.63-4.224.252-6.087 1.388-2.236 1.387-3.727 3.405-5.218 5.423-.994 1.388-4.845 4.92-6.211 5.929-1.242.883-2.485 1.766-3.479 2.901C4.148 23.946 1.54 30 .174 36.56c-.248 1.008-.248 2.017.124 3.026.373.883.994 1.514 1.988 1.388.87 0 1.366-.505 1.49-1.388.125-.63 0-1.26.125-1.892 1.118-6.307 3.602-11.983 7.95-16.524.497-.504.994-1.513 2.236-.883-.62 2.776-.993 5.55-.497 8.326.497 2.648 1.74 4.162 3.976 4.54 2.36.379 4.1-.756 5.466-2.522.745-.883 1.118-2.018 1.242-3.154.621-4.162-.124-7.82-3.106-10.974-.62-.63-1.615-1.009-.994-2.144 1.864-3.28 3.727-6.685 8.82-7.316-1.366 3.406-2.732 6.055-3.105 9.208-.249 2.775-.124 5.298 1.118 7.82.87 1.64 2.112 2.902 4.1 2.902 1.987 0 3.23-1.136 4.099-2.901 1.118-2.145 1.615-4.541 1.615-7.064-.124-2.901-.497-5.928-1.74-8.577-.745-1.514-.372-2.397.87-3.154 2.236-1.387 4.348-1.766 6.584-.757zM20.67 26.973c-.248 1.135-.87 2.396-2.236 2.27-1.242-.126-1.242-1.513-1.242-2.396-.124-2.523.124-5.046 1.366-7.82 2.237 2.648 2.733 5.17 2.112 7.946zm10.684-3.532c-2.485-4.667-1.615-8.577.497-12.361 1.49 4.036 2.236 7.946-.497 12.36z" fill="#5B1A0D"/></svg>
